X: 26801
T: Miller's Maggot, The
R: jig
M: 6/8
K: Gmajor
|:G2A ~B2A|~B2A BGE|G2A ~B2A|Bee dBA|
~G2A ~B2A|~B2A BGE|gfe dBA|1 Bee dBA:|2 Bee edB||
|:~e2f ~g2e|~d2B BAB|~e2f ~g3|~a3 agf|
~e2f ~g2e|~d2B BAG|~A3 cBA|1 Bee dgf:|2 Bee dBA||

